libs/ui/packages/crypto-icons/src/svg/RDN.svg

<svg width="24" height="24" viewBox="0 0 24 24" fill="none">
<path d="M7.12482 4.50449H13.2081C13.2816 4.48199 13.3191 4.54949 13.3671 4.58699C13.9405 5.12858 14.4548 5.72944 14.9016 6.37949C15.5363 7.28856 16.0346 8.28563 16.3806 9.33899C16.7421 10.452 16.9131 11.6295 16.8681 12.7995H13.7668C13.7821 12.644 13.7876 12.4877 13.7833 12.3315C13.7511 11.2282 13.4106 10.146 12.8743 9.18749C12.3006 8.16074 11.4996 7.27499 10.5891 6.53924C9.59757 5.73749 8.48157 5.10449 7.31907 4.59299C7.25457 4.56299 7.18707 4.53899 7.12482 4.50449ZM9.37632 9.99974C10.4168 11.882 11.4555 13.7653 12.4926 15.6495C12.7423 16.104 12.9951 16.557 13.2426 17.0122C11.9518 17.8387 10.6648 18.6727 9.37482 19.5V9.99974H9.37632Z" fill="#2A2A2A"/>
</svg>

<svg width="24" height="24" viewBox="0 0 24 24" fill="none"><path fill="#2a2a2a" d="M7.125 4.504h6.083c.074-.022.111.045.16.083a11 11 0 0 1 1.534 1.792 11.4 11.4 0 0 1 1.479 2.96 10 10 0 0 1 .487 3.46h-3.101a4 4 0 0 0 .016-.467c-.032-1.104-.372-2.186-.909-3.145-.573-1.026-1.374-1.912-2.285-2.648-.991-.802-2.107-1.435-3.27-1.946-.064-.03-.132-.054-.194-.089M9.376 10q1.56 2.823 3.117 5.65.377.68.75 1.362c-1.291.827-2.578 1.66-3.868 2.488V10z"/></svg>
